X:1
T: The Lark on the Strand
C:
R:Reel
Q: 232
K:Am
M:4/4
L:1/8
|:EA, A,2 EA, FA,|EA, A,A, A,2 Bc|dc BA GA Bc|B2 B,2 B,2 CD|
EA, A,2 EA, FA,|EA, A,A, A,2 Bc|dc BA GA Bc|A2 A2 A2 B2|
|:c2 ed c2 dB|cA dB AG FE|GA Bc dc BA|GA BG E3d|
c2 ed c2 dB|cA dB AG FE|GA Bc dB GB|1A2 A2 A3B:|2A2 A2 A2 fg|
|:a2 A,2 A,B, CD|EC DB, A,2 fg|ag fe dc BA|GA Bc B2 B2|
ag fe dc BA|dc de fg ag|ec Ac dB GB|1A2 A2 A2 fg:|2A2 A2 A4||
